X: 23864
T: Lizzy In The Lowground
R: reel
M: 4/4
K: Gdorian
|:d3B ABde|fabf abed|bfaefdaf|1 dBAd Bddc:|2 dBAd BAFE||
|:D3E DEFA|B2fB edBA|B2fB edBA|B2fB AFEF|
D3E DEFA|B2fB edBA|B2fB edBd|1 dBAd BAFE:|2 dBAd Bdde||

